X: 42051
T: Waltz From The Emerald Island, The
R: waltz
M: 3/4
K: Gmajor
B2 Bc d2|B2 Bc d2|c2 cd e2|d2 B2 G2|
c2 cd e2|d2 B2 G2|cA Fc AF|1 c2 A2 F2:|2 G3B d2||
b2 ba g2|b2 bg f2|a2 ag f2|g2 e2 B2|
e2 ed cd|d2 B2 G2|cA Fc AF|1 c2 A2 F2:|2 G6||

